app/dist/common/images/suzhou-tfc-optical.svg

<svg height="18" viewBox="0 0 18 18" width="18" xmlns="http://www.w3.org/2000/svg"><path d="m0 0h18v18h-18z" fill="#f0f3fa"/><path d="m3 6h3.77v1.41h-3.77z" fill="#cd3238"/><g fill="#5d5e60"><path d="m7 6h4v1.41h-4zm4 2h-4v4h1.37v-2.55h2.63zm-7.7 2.81v-2.81h1.31v2.15c0 .27.1.4.32.4h1.84v1.45h-2.5c-.53 0-.97-.53-.97-1.19z"/><path d="m13.87 6a3 3 0 0 0 0 6h1.13v-1.41h-1.2a1.59 1.59 0 1 1 0-3.18h1.2v-1.41z"/></g></svg>

<!-- by TradingView --><svg width="18" height="18" viewBox="0 0 18 18" xmlns="http://www.w3.org/2000/svg"><path fill="#F0F3FA" d="M0 0h18v18H0z"/><path fill="#CD3238" d="M3 6h3.77v1.41H3z"/><path fill="#5D5E60" d="M7 6h4v1.41H7zM11 8H7v4h1.37V9.45H11V8ZM3.3 10.81V8h1.31v2.15c0 .27.1.4.32.4h1.84V12h-2.5c-.53 0-.97-.53-.97-1.19Z"/><path d="M13.87 6a3 3 0 0 0 0 6H15v-1.41h-1.2a1.59 1.59 0 1 1 0-3.18H15V6h-1.13Z" fill="#5D5E60"/></svg>
